svgs/light/comment-sms.svg

<svg xmlns="http://www.w3.org/2000/svg" viewBox="0 0 512 512"><!--! Font Awesome Pro 6.0.0-alpha3 by @fontawesome - https://fontawesome.com License - https://fontawesome.com/license (Commercial License) --><path d="M256 32C114.6 32 .0137 125.1 .0137 240c0 47.63 19.89 91.25 52.89 126.3c-14.88 39.5-45.87 72.88-46.37 73.25c-6.625 7-8.374 17.25-4.624 26C5.784 474.3 14.34 480 23.97 480c61.5 0 109.1-25.75 139.1-46.25C192.1 442.8 223.3 448 256 448C397.4 448 512 354.9 512 240S397.4 32 256 32zM256 416c-28.25 0-56.25-4.25-83.25-12.75l-15.12-4.875l-13 9.25c-23 16.25-58.5 35.25-102.6 39.63c11.1-15.12 29.75-40.5 40.75-69.63l7.125-18.75l-13.62-14.62C47.38 313.8 32.13 277.6 32.13 240c0-97 100.5-176 224-176s224 79 224 176S379.5 416 256 416zM132.4 224.6l-4.109-1.188C111.3 218.4 111.7 216.3 112.2 213.5C112.1 209 122.4 206.9 133.7 208.6c4.172 .6719 8.766 2.109 13.14 3.609c8.359 2.891 17.47-1.578 20.33-9.922c2.875-8.344-1.562-17.45-9.922-20.33C151 179.8 144.5 177.9 138.6 177C108.1 172.3 84.69 184.7 80.64 208.1c-5.703 33 26.48 42.45 38.61 46.02l4.328 1.25c21.12 6.031 20.8 7.922 20.25 11.08c-.7813 4.516-10.2 6.688-21.61 4.906c-5.672-.8438-11.88-3.203-17.5-5.234L101.3 264.9c-8.391-3-17.48 1.422-20.42 9.734C77.97 283 82.33 292.1 90.66 295.1l3.203 1.156C101.1 298.8 109.3 301.8 117.4 303c4.359 .6719 8.578 1.016 12.61 1.016c24.28 0 41.91-12.06 45.38-32.11C181.1 238.5 149.4 229.5 132.4 224.6zM388.4 224.6l-4.109-1.188c-16.94-4.984-16.56-7.141-16.09-9.875c.7813-4.531 10.3-6.688 21.48-4.938c4.172 .6719 8.766 2.109 13.14 3.609c8.312 2.891 17.45-1.578 20.33-9.922c2.875-8.344-1.562-17.45-9.922-20.33c-6.156-2.125-12.66-4.031-18.58-4.969C364 172.3 340.7 184.7 336.6 208.1c-5.703 33 26.48 42.45 38.61 46.02l4.328 1.25c21.12 6.031 20.8 7.922 20.25 11.08c-.7656 4.516-10.23 6.688-21.61 4.906c-5.672-.8438-11.88-3.203-17.5-5.234l-3.375-1.203c-8.359-3-17.5 1.422-20.42 9.734c-2.953 8.344 1.406 17.48 9.734 20.42l3.203 1.156c7.219 2.594 15.39 5.531 23.52 6.766c4.359 .6719 8.578 1.016 12.61 1.016c24.28 0 41.91-12.06 45.38-32.11C437.1 238.5 405.4 229.5 388.4 224.6zM309.1 176.8C302.5 174.6 295.3 176.9 291.2 182.4L256 229.3L220.8 182.4C216.7 176.9 209.5 174.6 202.9 176.8C196.4 178.1 192 185.1 192 192v96c0 8.844 7.156 16 16 16S224 296.8 224 288V240l19.19 25.59c6.031 8.062 19.59 8.062 25.62 0L288 240V288c0 8.844 7.156 16 16 16S320 296.8 320 288V192C320 185.1 315.6 178.1 309.1 176.8z"/></svg>

<svg xmlns="http://www.w3.org/2000/svg" viewBox="0 0 512 512"><!-- Font Awesome Pro 6.0.0-alpha2 by @fontawesome - https://fontawesome.com License - https://fontawesome.com/license (Commercial License) --><path d="M256.068 32C114.693 32 0.068 125.125 0.068 240C0.068 287.625 19.943 331.25 52.943 366.25C38.068 405.75 7.068 439.125 6.568 439.5C-0.057 446.5 -1.807 456.75 1.943 465.5C5.818 474.25 14.318 480 23.943 480C85.443 480 133.943 454.25 163.068 433.75C192.068 442.75 223.318 448 256.068 448C397.443 448 512.068 354.875 512.068 240S397.443 32 256.068 32ZM256.068 416C227.818 416 199.818 411.75 172.818 403.25L157.693 398.375L144.693 407.625C121.693 423.875 86.193 442.875 42.068 447.25C54.068 432.125 71.818 406.75 82.818 377.625L89.943 358.875L76.318 344.25C47.443 313.75 32.193 277.625 32.193 240C32.193 143 132.693 64 256.193 64S480.193 143 480.193 240S379.568 416 256.068 416ZM132.443 224.609L128.334 223.422C111.396 218.438 111.771 216.281 112.24 213.547C113.021 209.016 122.506 206.859 133.724 208.609C137.896 209.281 142.49 210.719 146.865 212.219C155.224 215.109 164.334 210.641 167.193 202.297C170.068 193.953 165.631 184.844 157.271 181.969C151.115 179.844 144.615 177.938 138.693 177C108.146 172.344 84.756 184.719 80.709 208.109C75.006 241.109 107.193 250.563 119.318 254.125L123.646 255.375C144.771 261.406 144.443 263.297 143.896 266.453C143.115 270.969 133.693 273.141 122.287 271.359C116.615 270.516 110.412 268.156 104.787 266.125L101.412 264.922C93.021 261.922 83.928 266.344 80.99 274.656C78.037 283 82.396 292.141 90.724 295.078L93.928 296.234C101.146 298.828 109.318 301.766 117.443 303C121.803 303.672 126.021 304.016 130.053 304.016C154.334 304.016 171.959 291.953 175.428 271.906C181.209 238.547 149.49 229.469 132.443 224.609ZM388.443 224.609L384.334 223.422C367.396 218.438 367.771 216.281 368.24 213.547C369.021 209.016 378.537 206.859 389.724 208.609C393.896 209.281 398.49 210.719 402.865 212.219C411.177 215.109 420.318 210.641 423.193 202.297C426.068 193.953 421.631 184.844 413.271 181.969C407.115 179.844 400.615 177.937 394.693 177C364.068 172.344 340.756 184.719 336.709 208.109C331.006 241.109 363.193 250.563 375.318 254.125L379.646 255.375C400.771 261.406 400.443 263.297 399.896 266.453C399.131 270.969 389.662 273.141 378.287 271.359C372.615 270.516 366.412 268.156 360.787 266.125L357.412 264.922C349.052 261.922 339.912 266.344 336.99 274.656C334.037 283 338.396 292.141 346.724 295.078L349.927 296.234C357.146 298.828 365.318 301.766 373.443 303C377.802 303.672 382.021 304.016 386.052 304.016C410.334 304.016 427.959 291.953 431.428 271.906C437.209 238.547 405.49 229.469 388.443 224.609ZM309.131 176.828C302.568 174.625 295.412 176.891 291.271 182.406L256.068 229.328L220.865 182.406C216.724 176.891 209.552 174.609 203.006 176.828C196.474 179 192.068 185.109 192.068 192V288C192.068 296.844 199.224 304 208.068 304S224.068 296.844 224.068 288V240L243.271 265.594C249.303 273.656 262.834 273.656 268.865 265.594L288.068 240V288C288.068 296.844 295.224 304 304.068 304S320.068 296.844 320.068 288V192C320.068 185.109 315.662 179 309.131 176.828Z"/></svg>
